X: 4321
T: Bog Road To Meelick, The
R: reel
M: 4/4
K: Gmajor
D|:G3B dBB2|gBeB dBB2|ceAc BdGB|Add^c dedB|
G3B dBB2|gBeB dBB2|ceAc BdGB|1 AdFA G2zD:|2 AdFA G2Bd||
|:g3f gdBd|gGfG eGdB|cCGc BdGB|
[1 Add^c defd|g2gf gdBd|gGfG eGdB|cCGc BdGB|AdFA G2Bd:|
[2 AcAG AGFe|BGdG eGdG|gGfG eGdB|cCGc BdGB|AdFA G2B||

